yakuake/skins/materia-dark/tabs/lock.svg

<svg xmlns="http://www.w3.org/2000/svg" width="12" height="12" version="1.1" viewBox="0 0 12 12">
 <g>
  <rect style="opacity:0.001" width="12" height="12" x="0" y="0"/>
  <rect width="8" height="5" x="2" y="6" rx="1" ry="1" style="fill:#dfdfdf"/>
  <path d="M 6 1 C 4.338 1 3 2.338 3 4 L 3 8 C 3 9.662 4.338 11 6 11 C 7.662 11 9 9.662 9 8 L 9 4 C 9 2.338 7.662 1 6 1 z M 6 3 C 6.5885945 3 7 3.4114055 7 4 L 7 8 C 7 8.5885945 6.5885945 9 6 9 C 5.4114055 9 5 8.5885945 5 8 L 5 4 C 5 3.4114055 5.4114055 3 6 3 z" style="fill:#dfdfdf"/>
 </g>
</svg>

<?xml version="1.0" encoding="UTF-8"?>
<svg width="12" height="12" version="1.1" viewBox="0 0 12 12" xmlns="http://www.w3.org/2000/svg">
 <rect width="12" height="12" opacity=".001"/>
 <rect x="2" y="6" width="8" height="5" rx="1" ry="1" fill="#dfdfdf"/>
 <path d="m6 1c-1.662 0-3 1.338-3 3v4c0 1.662 1.338 3 3 3s3-1.338 3-3v-4c0-1.662-1.338-3-3-3zm0 2c0.58859 0 1 0.41141 1 1v4c0 0.58859-0.41141 1-1 1s-1-0.41141-1-1v-4c0-0.58859 0.41141-1 1-1z" fill="#dfdfdf"/>
</svg>
